flaticon/emoticons/happy-1.svg

<svg xmlns="http://www.w3.org/2000/svg" width="32" height="32" viewBox="0 0 24 24">
    <path d="M 18 14.726562 L 6 14.726562 C 5.699219 14.726562 5.453125 14.972656 5.453125 15.273438 C 5.453125 18.882812 8.390625 21.816406 12 21.816406 C 15.609375 21.816406 18.546875 18.882812 18.546875 15.273438 C 18.546875 14.972656 18.300781 14.726562 18 14.726562 Z M 6.753906 15.816406 L 9.816406 15.816406 L 9.816406 17.257812 C 8.3125 16.96875 7.199219 16.410156 6.753906 15.816406 Z M 10.910156 15.816406 L 13.089844 15.816406 L 13.089844 17.40625 C 12.738281 17.4375 12.375 17.453125 12 17.453125 C 11.625 17.453125 11.261719 17.4375 10.910156 17.40625 Z M 14.183594 15.816406 L 17.246094 15.816406 C 16.804688 16.410156 15.6875 16.96875 14.183594 17.257812 Z M 12 20.726562 C 9.753906 20.726562 7.824219 19.363281 6.988281 17.421875 C 8.167969 18.117188 9.945312 18.546875 12 18.546875 C 14.054688 18.546875 15.832031 18.117188 17.011719 17.421875 C 16.175781 19.363281 14.246094 20.726562 12 20.726562 Z M 12 20.726562"/>
    <path d="M 12 0 C 5.382812 0 0 5.382812 0 12 C 0 18.617188 5.382812 24 12 24 C 18.617188 24 24 18.617188 24 12 C 24 5.382812 18.617188 0 12 0 Z M 12 22.910156 C 5.984375 22.910156 1.089844 18.015625 1.089844 12 C 1.089844 5.984375 5.984375 1.089844 12 1.089844 C 18.015625 1.089844 22.910156 5.984375 22.910156 12 C 22.910156 18.015625 18.015625 22.910156 12 22.910156 Z M 12 22.910156"/>
    <path d="M10.910156 8.726562C10.910156 6.621094 9.195312 4.910156 7.089844 4.910156 4.984375 4.910156 3.273438 6.621094 3.273438 8.726562 3.273438 10.832031 4.984375 12.546875 7.089844 12.546875 9.195312 12.546875 10.910156 10.832031 10.910156 8.726562zM4.382812 8.914062C4.71875 9.453125 5.316406 9.816406 6 9.816406 7.054688 9.816406 7.910156 8.964844 7.910156 7.910156 7.910156 7.027344 7.304688 6.289062 6.492188 6.070312 6.683594 6.027344 6.882812 6 7.089844 6 8.59375 6 9.816406 7.222656 9.816406 8.726562 9.816406 10.230469 8.59375 11.453125 7.089844 11.453125 5.652344 11.453125 4.480469 10.328125 4.382812 8.914062zM16.910156 4.910156C14.804688 4.910156 13.089844 6.621094 13.089844 8.726562 13.089844 10.832031 14.804688 12.546875 16.910156 12.546875 19.015625 12.546875 20.726562 10.832031 20.726562 8.726562 20.726562 6.621094 19.015625 4.910156 16.910156 4.910156zM16.910156 11.453125C15.46875 11.453125 14.296875 10.328125 14.199219 8.914062 14.539062 9.453125 15.132812 9.816406 15.816406 9.816406 16.871094 9.816406 17.726562 8.964844 17.726562 7.910156 17.726562 7.027344 17.125 6.289062 16.308594 6.070312 16.503906 6.027344 16.703125 6 16.910156 6 18.414062 6 19.636719 7.222656 19.636719 8.726562 19.636719 10.230469 18.414062 11.453125 16.910156 11.453125zM16.910156 11.453125"/>
</svg>

<svg xmlns="http://www.w3.org/2000/svg" width="32" height="32" viewBox="0 0 24 24">
    <path d="M18 14.727H6c-.3 0-.547.246-.547.546 0 3.61 2.938 6.543 6.547 6.543 3.61 0 6.547-2.933 6.547-6.543 0-.3-.246-.546-.547-.546zm-11.246 1.09h3.062v1.44c-1.504-.288-2.617-.847-3.062-1.44zm4.156 0h2.18v1.59a12.31 12.31 0 0 1-1.09.046c-.375 0-.738-.015-1.09-.047zm3.274 0h3.062c-.441.593-1.558 1.152-3.062 1.44zM12 20.726a5.46 5.46 0 0 1-5.012-3.305c1.18.695 2.957 1.125 5.012 1.125 2.055 0 3.832-.43 5.012-1.125A5.46 5.46 0 0 1 12 20.727zm0 0"/>
    <path d="M12 0C5.383 0 0 5.383 0 12s5.383 12 12 12 12-5.383 12-12S18.617 0 12 0zm0 22.91C5.984 22.91 1.09 18.016 1.09 12S5.984 1.09 12 1.09 22.91 5.984 22.91 12 18.016 22.91 12 22.91zm0 0"/>
    <path d="M10.91 8.727A3.823 3.823 0 0 0 7.09 4.91a3.82 3.82 0 0 0-3.817 3.817c0 2.105 1.711 3.82 3.817 3.82a3.826 3.826 0 0 0 3.82-3.82zm-6.527.187a1.905 1.905 0 1 0 2.11-2.844c.19-.043.39-.07.597-.07a2.729 2.729 0 0 1 2.726 2.727 2.729 2.729 0 0 1-2.726 2.726 2.722 2.722 0 0 1-2.707-2.539zm0 0M16.91 4.91a3.823 3.823 0 0 0-3.82 3.817 3.826 3.826 0 0 0 3.82 3.82 3.823 3.823 0 0 0 3.817-3.82A3.82 3.82 0 0 0 16.91 4.91zm0 6.543a2.723 2.723 0 0 1-2.71-2.539c.34.54.933.902 1.616.902 1.055 0 1.91-.851 1.91-1.906 0-.883-.601-1.62-1.417-1.84.195-.043.394-.07.601-.07a2.729 2.729 0 0 1 2.727 2.727 2.729 2.729 0 0 1-2.727 2.726zm0 0"/>
</svg>
